X:38
T:Untitled (Clee Hill)
M:4/4
L:1/4
C:trad
S:Dennis Crowther
R:polka/march
K:C
E3F|G3A|GcBA|G2E2|D3E|F3G|BAGF|EcBA|E3F|G3A|GcBA|G2E2|D3E|F3G|BAFD|C2C2|
|
eGeG|e3E/2F/2|GAGc|B2A2|fGfG|f3E/2F/2|GAGB|A2G2|eGeG|e3E/2F/2|GAGc|B2A2|
ABcB/2A/2|GCe2|edAB|c4||

 
